X: 1
T:Drowsy Maggie
C:Traditional
N:transcribed by Alan Ng
Z: id:ng-reels-7 Alan Ng agng@students.wisc.edu January 1996
M:C|
R:reel
K:D
E:13
E2 BE dEBE| E2 BE AFDF|E2 BE dEBE|1BABc dAFD:|2 BABc dAFA||\
d2 fd c2 ec|defg afge|d2 fd c2 ec|BABc dAFA|\
d2 fd c2 ec|defg a2 fg|afge fdec|BABc dAFD|]**
